X:44
T:Kathleen O'Hehir
R:jig
M:6/8
K:D
A||dcd e2d|c2E EFG|BdB BAG|~F3 DFA|
dcd e2d|c2E EFG|ABA GFE|1 DED DFA:|2 DED D2E||
F2A ded|c2B ~G3|ABA G2E|ABA ~F3|
DFA ded|c2B G2F|EFG ABc|1 d3 dAG:|2 d3 d2A||
~d3 d2e|f2d ~A3|~f3 fed|c2d ecA|
~d3 d2e|f2d AGF|EFG ABc|1 d3 d2A:|2 d3 dfg||
~a3 f2d|Adf agf|~g3 ecA|Bcd efg|
~a3 f2d|Adf agf|gec ABc|1 ~d3 dfg:|2 ~d3 d2A||
